!!!OTL: Wangdaniang weiji renren kua
!!!ARE: Asia, China,ÿShandong Dezhou
!! III, 321
!!!SCT: C1756
!!!YEM: Copyright 1995, estate of Helmut Schaffrath.
**kern
*ICvox
*Ivox
*M2/4
*k[]
*C:
{8a
16a
16g
8a
8ee
=1
4dd
4cc
=2
8a
16a
16cc
8e
8a
=3
2g}
=4
{8gg
8a
8ee
16ee
16gg
=5
8b
8a
4g
=6
8a
16ee
16ee
8dd
8a
=7
2cc}
=8
{8dd
16dd
16dd
8ee
8ee
=9
8b
8b
4a
=10
8ee
8r
8a
8r
=11
8ee
8r
8a
8r}
=12
{8a
8a
8ee
8ee
=13
8dd
8dd
4dd
=14
8.ee
16ee
8ee
8ee
=15
8.gg
16b
8b
8b
=16
8a
16a
16cc
8e
8g
=17
2a}
=18
{2dd
=19
8dd
8b
4a
=20
8ee
8ee
8dd
8b
=21
2cc}
==
!!!AGN: Xiaodiao
!!!AMT: simple duple
!!!AIN: vox
!!!EED: Helmut Schaffrath
!!!EEV: 1.0
*-
